brandFactory_export/1.Light/Flecha arriba abajo_1Light.svg

<?xml version="1.0" encoding="UTF-8"?>
<svg width="24px" height="24px" viewBox="0 0 24 24" version="1.1" xmlns="http://www.w3.org/2000/svg" xmlns:xlink="http://www.w3.org/1999/xlink">
    <title>1.Light/Flecha arriba abajo_1Light</title>
    <g id="Symbols" stroke="none" stroke-width="1" fill="none" fill-rule="evenodd">
        <g id="1.Light/Flecha-arriba-abajo_1Light" fill="#5CB615" fill-rule="nonzero">
            <path d="M16.7815126,23.6403361 C16.6537815,23.6403361 16.5294118,23.6 16.4218487,23.5159664 C16.3915966,23.492437 16.3647059,23.4655462 16.3378151,23.4352941 L11.0436975,18.0672269 C11.0369748,18.0605042 11.0302521,18.0504202 11.0235294,18.0436975 C10.8722689,17.8554622 10.8420168,17.6067227 10.9462185,17.3848739 C11.0470588,17.1731092 11.2487395,17.0453782 11.4773109,17.0453782 L14.1697479,17.0218487 L14.1630252,12.9546218 C14.1630252,12.3193277 14.6806723,11.8016807 15.3159664,11.8016807 L18.2672269,11.8016807 C18.902521,11.8016807 19.4201681,12.3193277 19.4201681,12.9546218 L19.4235294,17.0252101 L22.1193277,17.0487395 C22.3445378,17.0487395 22.5462185,17.1798319 22.6470588,17.3882353 C22.7512605,17.6067227 22.7210084,17.8588235 22.5697479,18.0470588 C22.5630252,18.0571429 22.5563025,18.0638655 22.5462185,18.0705882 L17.2252101,23.4352941 C17.1109244,23.5697479 16.9495798,23.6403361 16.7815126,23.6403361 Z M11.6420168,17.7176471 L16.7848739,22.9277311 L21.9546218,17.7176471 L19.3428571,17.697479 L19.3361345,17.697479 C19.0067227,17.687395 18.7478992,17.4151261 18.7546218,17.0857143 L18.7478992,12.9579832 C18.7478992,12.692437 18.5327731,12.4773109 18.2672269,12.4773109 L15.3159664,12.4773109 C15.0504202,12.4773109 14.8352941,12.692437 14.8352941,12.9579832 L14.8420168,17.0857143 C14.8487395,17.4151261 14.589916,17.687395 14.2605042,17.697479 L14.2537815,17.697479 L11.6420168,17.7176471 Z M7.46722689,11.8420168 C6.83193277,11.8420168 6.31428571,11.3243697 6.31428571,10.6890756 L6.31092437,6.62184874 L3.61512605,6.59831933 C3.38991597,6.59831933 3.18823529,6.46722689 3.08739496,6.25882353 C2.98319328,6.04033613 3.01344538,5.78823529 3.16470588,5.6 C3.17142857,5.58991597 3.17815126,5.58319328 3.18823529,5.57647059 L8.5092437,0.211764706 C8.60336134,0.100840336 8.73781513,0.0302521008 8.88235294,0.0100840336 C9.03697479,-0.00672268908 9.18823529,0.0336134454 9.31260504,0.131092437 C9.34285714,0.154621849 9.3697479,0.181512605 9.39663866,0.211764706 L14.6907563,5.57983193 C14.697479,5.58655462 14.7042017,5.59663866 14.7109244,5.60336134 C14.8621849,5.79159664 14.892437,6.04033613 14.7882353,6.26218487 C14.687395,6.47394958 14.4857143,6.60168067 14.2571429,6.60168067 L11.5647059,6.62521008 L11.5714286,10.6890756 C11.5714286,11.3243697 11.0537815,11.8420168 10.4184874,11.8420168 L7.46722689,11.8420168 Z M6.98319328,6.56134454 L6.98655462,10.6890756 C6.98655462,10.9546218 7.20168067,11.1697479 7.46722689,11.1697479 L10.4184874,11.1697479 C10.6840336,11.1697479 10.8991597,10.9546218 10.8991597,10.6890756 L10.892437,6.56470588 C10.8857143,6.23865546 11.1445378,5.96302521 11.4739496,5.95294118 L11.4806723,5.95294118 L14.092437,5.93277311 L8.94957983,0.722689076 L3.77983193,5.92605042 L6.39159664,5.94621849 L6.39831933,5.94621849 C6.72773109,5.95966387 6.98655462,6.23193277 6.98319328,6.56134454 Z" id="Flecha-arriba-abajo_1Light"></path>
        </g>
    </g>
</svg>

<svg width="24" height="24" viewBox="0 0 24 24" xmlns="http://www.w3.org/2000/svg"><path d="M16.782 23.64a.577.577 0 01-.444-.205l-5.294-5.368c-.007-.006-.014-.017-.02-.023a.618.618 0 01-.078-.66c.101-.21.303-.339.531-.339l2.693-.023-.007-4.067c0-.636.518-1.153 1.153-1.153h2.951c.636 0 1.153.517 1.153 1.153l.004 4.07 2.695.024c.226 0 .427.13.528.34a.618.618 0 01-.077.658.079.079 0 01-.024.024l-5.32 5.364a.578.578 0 01-.444.205zm-5.14-5.922l5.143 5.21 5.17-5.21-2.612-.02h-.007a.6.6 0 01-.581-.612l-.007-4.128a.48.48 0 00-.48-.48h-2.952a.48.48 0 00-.48.48l.006 4.128a.6.6 0 01-.581.611h-.007l-2.612.02zm-4.175-5.876a1.155 1.155 0 01-1.153-1.153l-.003-4.067-2.696-.024a.587.587 0 01-.528-.34.618.618 0 01.078-.658.079.079 0 01.023-.024L8.51.212A.597.597 0 018.882.01a.585.585 0 01.515.202L14.69 5.58c.006.007.013.017.02.023a.618.618 0 01.077.66.582.582 0 01-.53.339l-2.693.023.006 4.064c0 .635-.517 1.153-1.153 1.153h-2.95zm-.484-5.28l.004 4.127c0 .266.215.48.48.48h2.951a.48.48 0 00.481-.48l-.007-4.124a.601.601 0 01.582-.612h.007l2.611-.02L8.95.723 3.78 5.926l2.612.02h.006a.61.61 0 01.585.615z" fill="#5CB615" fill-rule="nonzero"/></svg>
